X:75
T: Seckauer Jodler
N: D0079A
O: Europa, Mitteleuropa, Deutschland, Niederbayern
N: Unterstimme notiert, ergaenzt die Skala zu Pentatonik; Inzipit =
N: Transposition zum Lied; DVA - Signatur 79A; KEINE Variante zum
N: vorhergehenden Lied !
R: Jodler
M: 3/4
L: 1/16
K: C
G3E | G3ed2d2G3G | E2G2c4z3
E | G3ed2d2G3G | E2G2c4z3
E | G3ed2d2G3G | c3ge2e2
c3c | G3ed2d2G3G | c3ge2e2
c3c | G3ed2d2G3G | E3Gc3de3d | c8

